src/assets/images/landing/4-bullet.svg

<svg width="142" height="134" viewBox="0 0 142 134" fill="none" xmlns="http://www.w3.org/2000/svg">
<path d="M103.851 44.2693C108.877 44.5566 116.15 49.7498 119.158 52.3106L123.105 64.9945C124.879 70.6952 122.096 75.8536 120.483 77.7203C115.201 84.2476 101.064 89.2432 83.8281 95.0814C68.0384 100.43 44.3465 108.856 37.408 106.177C31.7953 105.318 26.183 90.5475 25.564 89.1483C25.939 89.0316 24.8981 87.5043 23.235 82.1596C20.9739 74.8933 25.7628 69.9571 31.2762 66.8531C36.7895 63.749 81.6753 48.8559 85.0509 47.8055C88.4265 46.7551 97.5687 43.9103 103.851 44.2693Z" fill="#E6E6E6"/>
<path d="M100.261 32.732C105.287 33.0192 112.559 38.2125 115.567 40.7732L119.514 53.4571C121.288 59.1578 118.506 64.3163 116.892 66.1829C111.61 72.7103 97.4739 77.7059 80.2377 83.544C64.4481 88.8922 40.7562 97.3185 33.8177 94.6392C28.205 93.7805 22.5927 79.0101 21.9736 77.6109C22.3487 77.4942 21.3078 75.9669 19.6446 70.6222C17.3835 63.356 22.1725 58.4198 27.6858 55.3157C33.1992 52.2117 78.085 37.3186 81.4606 36.2682C84.8361 35.2178 93.9783 32.3729 100.261 32.732Z" fill="#2D74A9"/>
<path d="M98.7823 27.9815C103.808 28.2687 111.081 33.462 114.089 36.0227L118.036 48.7066C119.81 54.4073 117.027 59.5658 115.414 61.4324C110.132 67.9598 95.9953 72.9554 78.7592 78.7935C62.9696 84.1417 39.2777 92.568 32.3392 89.8888C26.7265 89.03 21.1142 74.2596 20.4951 72.8604C20.8702 72.7437 19.8293 71.2164 18.1661 65.8717C15.905 58.6055 20.694 53.6693 26.2073 50.5652C31.7207 47.4612 76.6065 32.5681 79.982 31.5177C83.3576 30.4673 92.4998 27.6224 98.7823 27.9815Z" fill="#66A6D6"/>
</svg>

<svg width="142" height="134" fill="none" xmlns="http://www.w3.org/2000/svg"><path d="M103.851 44.27c5.026.287 12.299 5.48 15.307 8.04l3.947 12.684c1.774 5.701-1.009 10.86-2.622 12.726-5.282 6.528-19.419 11.523-36.655 17.361-15.79 5.349-39.482 13.775-46.42 11.096-5.613-.859-11.225-15.63-11.844-17.029.375-.116-.666-1.644-2.329-6.988-2.261-7.267 2.528-12.203 8.041-15.307 5.513-3.104 50.4-17.997 53.775-19.047 3.376-1.05 12.518-3.896 18.8-3.537z" fill="#E6E6E6"/><path d="M100.261 32.732c5.026.287 12.298 5.48 15.306 8.041l3.947 12.684c1.774 5.7-1.008 10.86-2.622 12.726-5.282 6.527-19.418 11.523-36.654 17.361-15.79 5.348-39.482 13.775-46.42 11.095-5.613-.858-11.225-15.629-11.844-17.028.375-.117-.666-1.644-2.33-6.989-2.26-7.266 2.529-12.202 8.042-15.306 5.513-3.104 50.399-17.997 53.775-19.048 3.375-1.05 12.517-3.895 18.8-3.536z" fill="#2D74A9"/><path d="M98.782 27.982c5.026.287 12.299 5.48 15.307 8.04l3.947 12.685c1.774 5.7-1.009 10.859-2.622 12.725-5.282 6.528-19.419 11.523-36.655 17.361-15.79 5.349-39.481 13.775-46.42 11.096-5.612-.859-11.225-15.63-11.844-17.029.375-.116-.666-1.644-2.329-6.988-2.261-7.267 2.528-12.203 8.041-15.307 5.514-3.104 50.4-17.997 53.775-19.047 3.376-1.05 12.518-3.896 18.8-3.537z" fill="#66A6D6"/></svg>
